X:1
T:Title
%%score { ( 1 3 ) | ( 2 4 ) }
L:1/8
M:4/4
K:E
V:1 treble nm="Grand Piano"
V:3 treble 
V:2 bass 
V:4 bass 
V:1
 z4 z2[Q:1/4=100] [EG][FA] | [GB]2 [GB][Ac] [GB]2 [B,EG][G,B,F] | z4 z2 [CE]2 | %3
 G2 GG [GB]G[B,F][^A,CE] | [B,DF]6 [B,EG][B,FA] | [EGB]2 [EGB][EAc] [EGB]2 [B,EG][G,B,F] | %6
 [A,CE]2 [A,C]2 [A,CE]2 [CE]2 | [B,EG]2 [B,GB][B,EG] [A,EF][FA][B,EG][DF] |[M:3/4] [G,E]6 | %9
[M:1/4] [B,EG][B,FA] |[M:4/4] [GB]2 G>G GG [GB]2 | c2 e2 z2 E2 | G2 G2 [GB]G[B,F][^A,CE] | %13
 [B,DF]6 [B,EG][B,FA] | [EGB]2 [EAc]2 [EGB]2 [B,EG][G,DF] | [A,CE]2 [A,C]2 [A,CE]2 [CE]2 | %16
 [B,EG]2 [B,GB][B,EG] [A,F][FA][B,EG][DF] |[M:3/4] [G,E]6 |] %18
V:2
 z4 z2 [E,B,][E,B,] | [E,E]2 [E,E][E,E] [E,E]2 E,E, | A,,2 A,,2 A,,2 A,,2 | %3
 [E,B,E]2 [E,B,E][E,B,E] z ED,C, | B,,6 E,E, | E,2 E,E, E,2 E,E, | A,,2 A,,2 A,,2 z F | %7
 E,2 E,E, z C z A, |[M:3/4] E,6 |[M:1/4] E,E, |[M:4/4] [E,E]2 [E,E]>[E,E] [E,E][E,E] [E,E]2 | %11
 [A,EA]>[A,E][K:bass] [A,,CA]>C, E,2 z A, | [E,B,E]2 [E,B,E]2 z ED,C, | B,,6 E,E, | %14
 E,2 E,2 E,2 E,E, | A,,2 A,,2 A,,2 z F | E,2 E,E, z C z A, |[M:3/4] E,6 |] %18
V:3
 x8 | x8 | [A,CE]2 [A,C]2 [A,CE]2 z F | x8 | x8 | x8 | x8 | x8 |[M:3/4] x6 |[M:1/4] x2 | %10
[M:4/4] x8 | z z/ A/ z z/ [EA]/ [EGB]2 G,F | x8 | x8 | x8 | x8 | x8 |[M:3/4] x6 |] %18
V:4
 x8 | x8 | x8 | z4 [E,B,]2 z2 | x8 | x8 | z4 z2 A,,2 | z4 A,,2 B,,2 |[M:3/4] x6 |[M:1/4] x2 | %10
[M:4/4] x8 | z4[K:bass] z2 E,2 | z4 [E,B,]2 z2 | x8 | x8 | z4 z2 A,,2 | z4 A,,2 B,,2 |[M:3/4] x6 |] %18

